static/fa/svgs/solid/earth-oceania.svg

<svg xmlns="http://www.w3.org/2000/svg" viewBox="0 0 512 512"><!--! Font Awesome Free 6.1.1 by @fontawesome - https://fontawesome.com License - https://fontawesome.com/license/free (Icons: CC BY 4.0, Fonts: SIL OFL 1.1, Code: MIT License) Copyright 2022 Fonticons, Inc.--><path d="M0 256C0 114.6 114.6 0 256 0s256 114.6 256 256-114.6 256-256 256S0 397.4 0 256zm215.5 104.6 25.4 16.4c6.2 4.6 15.3 7 23.7 7 13.4 0 26.1-6.2 33.5-16.8l12.9-15.4c5.8-7.4 9-16.6 9-26 0-9.4-3.2-18.6-9-26l-17.9-22.9c-4.8-6.2-8.7-13.8-11.5-20.2l-10.1-25.9c-1.6-4.1-5.6-6.8-10-6.8-3.5 0-6.7 1.6-8.7 4.4l-10.4 14.2c-4.7 5.5-12.7 9.5-20.5 7.9-3.2-.7-6.1-3.4-8.1-5.1l-4.5-6.1c-7.2-9.6-18.6-15.3-30.6-15.3s-23.4 5.7-30.6 15.3l-5.3 7c-1.5 2.1-3.6 3.7-5.9 4.8l-35.3 16.8c-20.52 9.8-28.8 34.7-18.23 54.8l3.28 6.2c9.02 17.2 29.05 25.4 47.45 19.5l15.4-4.8c6.5-2.1 13.6-2 20.1.2l39 13.5c2.4.8 4.8 1.9 6.9 3.3zm58.3-218.1c-9.5-10.4-23-13.6-36.2-11l-38.5 7.7c-15.3 3.1-17.6 24-3.4 30.3l42.8 19.1c5.2 2.2 10.7 3.4 16.3 3.4h29.9c14.2 0 21.4-17.2 11.3-27.3l-22.2-22.2zM264 448h16c8.8 0 16-7.2 16-16s-7.2-16-16-16h-16c-8.8 0-16 7.2-16 16s7.2 16 16 16zm167.2-149.1c-2.8-8.3-11.9-12.9-20.3-10.1-8.3 2.8-12.9 11.9-10.1 20.3l8 24c2.8 8.3 11.9 12 20.3 10.1 8.3-2.8 12-11.9 10.1-20.3l-8-24zm-19.9 80.4c6.3-6.2 6.3-16.4 0-22.6-6.2-6.3-16.4-6.3-22.6 0l-32 32c-6.3 6.2-6.3 16.4 0 22.6 6.2 6.3 16.4 6.3 22.6 0l32-32z"/></svg>

<svg xmlns="http://www.w3.org/2000/svg" viewBox="0 0 512 512"><!--! Font Awesome Free 6.1.1 by @fontawesome - https://fontawesome.com License - https://fontawesome.com/license/free (Icons: CC BY 4.0, Fonts: SIL OFL 1.1, Code: MIT License) Copyright 2022 Fonticons, Inc. --><path d="M0 256C0 114.6 114.6 0 256 0C397.4 0 512 114.6 512 256C512 397.4 397.4 512 256 512C114.6 512 0 397.4 0 256zM215.5 360.6L240.9 377C247.1 381.6 256.2 384 264.6 384C278 384 290.7 377.8 298.1 367.2L311 351.8C316.8 344.4 320 335.2 320 325.8C320 316.4 316.8 307.2 311 299.8L293.1 276.9C288.3 270.7 284.4 263.1 281.6 256.7L271.5 230.8C269.9 226.7 265.9 224 261.5 224C258 224 254.8 225.6 252.8 228.4L242.4 242.6C237.7 248.1 229.7 252.1 221.9 250.5C218.7 249.8 215.8 247.1 213.8 245.4L209.3 239.3C202.1 229.7 190.7 224 178.7 224C166.7 224 155.3 229.7 148.1 239.3L142.8 246.3C141.3 248.4 139.2 250 136.9 251.1L101.6 267.9C81.08 277.7 72.8 302.6 83.37 322.7L86.65 328.9C95.67 346.1 115.7 354.3 134.1 348.4L149.5 343.6C156 341.5 163.1 341.6 169.6 343.8L208.6 357.3C211 358.1 213.4 359.2 215.5 360.6H215.5zM273.8 142.5C264.3 132.1 250.8 128.9 237.6 131.5L199.1 139.2C183.8 142.3 181.5 163.2 195.7 169.5L238.5 188.6C243.7 190.8 249.2 192 254.8 192H284.7C298.9 192 306.1 174.8 296 164.7L273.8 142.5zM264 448H280C288.8 448 296 440.8 296 432C296 423.2 288.8 416 280 416H264C255.2 416 248 423.2 248 432C248 440.8 255.2 448 264 448zM431.2 298.9C428.4 290.6 419.3 286 410.9 288.8C402.6 291.6 398 300.7 400.8 309.1L408.8 333.1C411.6 341.4 420.7 345.1 429.1 343.2C437.4 340.4 441.1 331.3 439.2 322.9L431.2 298.9zM411.3 379.3C417.6 373.1 417.6 362.9 411.3 356.7C405.1 350.4 394.9 350.4 388.7 356.7L356.7 388.7C350.4 394.9 350.4 405.1 356.7 411.3C362.9 417.6 373.1 417.6 379.3 411.3L411.3 379.3z"/></svg>
